X:1
T:Liverpool Lou
M:3/4
L:1/4
K:G
 G| G A G| G3| F3-| F3| A B c| B2- A| G3-| G2 z| d e d| d3| c3-| c z c|\
 c d c| c3| B3-| B2 G| G/2 A3/2 G| G3| F3-| F2 A| A B c| B3| G3-| G z d|\
 d e d| d3| c3-| c z G| F B A| G z B| B A G| D3| D2 E| E C E| D3-|\
 D z B| B A B| d3| G2 B| B/2 A3/2 G| A3-| A3| B A G| D3| D2 E| E C E|\
 D3-| D3| B A B| d3| D2 D| D/2 B3/2 A| G3-| G z||
